**kern	**fb	**text	**text
!!		actual acc.	force diatonic accidental
!! Title	D minor
!! Number	1
*clefF4	*	*	*
*k[b-]	*k[b-]	*k[b-]	*k[b-]
*met(c)	*met(c)	*met(c)	*met(c)
*d:	*d:	*d:	*d:
=1	=1	=1	=1
4D	.	.	.
4d[	.	.	.
4d]	2	.	.
4c#	.	6	.
=|2	=|2	=|2	=|2
4d	.	.	.
4A	6	.	.
4B-	.	.	.
4G	- 6	6 -	.
=|	=|	=|	=|
4A	#	.	.
4F#	5-	5n	.
4G	9	.	.
4E	.	.	.
=|2	=|2	=|2	=|2
4A	7 #	.	.
4D	3	.	.
2AA	4	.	.
.	#	.	.
=|	=|	=|	=|
8DL	.	.	.
8CJ	.	.	.
8BB-L	6	.	.
8AAJ	6/	6#	.
4GG	.	.	.
4EE	5-	5-	.
=|	=|	=|	=|
2FF	9	.	.
.	8	.	.
2C	4	.	.
.	3	.	.
=|	=|	=|	=|
2D	7	.	.
.	6-	.	.
4E	5-	5-	.
4F	.	.	.
=|	=|	=|	=|
4C	.	.	.
4c	.	.	.
4A	.	.	.
4F	.	.	.
=|	=|	=|	=|
4D	.	.	.
4BB-	.	.	.
4GG	.	.	.
4EE	5-	5-	.
=|	=|	=|	=|
2FF	9	.	.
.	8	.	.
4C	4	.	.
4CC	3	.	.
=|	=|	=|	=|
4FF	.	.	.
4F	.	.	.
2G	7	7	.
.	6	.	.
=|	=|	=|	=|
8DL	9	.	.
8E	.	.	.
8F	6	.	.
8DJ	.	.	.
4.A	4	.	.
.	3	.	.
8AA	.	.	.
=|	=|	=|	=|
4.D	9 7	.	.
.	8 6/	8 6n	.
8BB	.	.	.
4.C	9 7	9 7n	.
.	8 6	.	.
8AA	.	.	.
=|	=|	=|	=|
4E	#	.	.
4AA	.	.	.
2EE	4	.	.
.	#	.	.
=|	=|	=|	=|
4AA	.	.	.
8AL	.	.	.
8GJ	.	.	.
4F#	5-	5n	.
8GL	.	.	.
8FJ	.	.	.
=|	=|	=|	=|
4E	5-	5-	.
8FL	.	.	.
8EJ	.	.	.
4D	6/	6n	.
4C	.	.	.
=|	=|	=|	=|
4G	4	.	.
4GG	n	.	.
4C	.	.	.
4AA	6	.	.
=1	=1	=1	=1
4BB-	9	.	.
4D	6	.	.
4F	4	.	.
4FF	3	.	.
=|	=|	=|	=|
4C	.	.	.
4E	6	.	.
4F	.	.	.
4D	6	.	.
=1	=1	=1	=1
4E-	.	.	.
4C	6	6 -	.
4D	#	.	.
4BB-	6	.	.
=1	=1	=1	=1
4FF#	.	6	.
4GG	.	.	.
4D	4	.	.
4DD	#	.	.
=1	=1	=1	=1
4GG	.	.	.
4G	.	.	.
4C#	5-	5n	.
4D	.	.	.
=1	=1	=1	=1
4AA	#	.	.
4FF	.	.	.
2GG	7 9	9 7	.
.	6 8	8 6	.
=1	=1	=1	=1
1AA	# 7	7 #	.
.	4 6	6 4	.
.	4 5	5 4	.
.	#	.	.
1DD	.	.	.
==	==	==	==
*-	*-	*-	*-
